X: 500
T: THE BOLD DRAGON
B: O'Neill's 500
Z: 1999 by John Chambers <jc@trillian.mit.edu>
N: "Spirited"
N: Collected by "F.O'Neill"
M: C
L: 1/8
K:D
A>A \
|Adcd d2cd|fedef d2de|fgfe dc Bc/d/|edcB A3G|
|FGFE DEDF|AGFA Hd2 HA2 de|fdec d2cd|B2Bc BAFA|
|d2DF A2AA|B2Bc BA zc|d2DF A2AA|BecA Hd4|]
